X: 10
T: Tobin Downpour  [Gm]
C: Len Bittenson 2016
M: 4/4
L: 1/8
Q: 1/4=240
K: Gmin
|:"Gm"GDGA BGBc|dcBA "Bb"BAGF|"Eb"E2 B,E GEGA|BAGF "F"GFDF|
|"Gm"GDGA "Eb"BGBc|"Bb"dcBA BAGF|"Cm"GABc "Eb"BAGF|1 "Dm"DG2 "F"F"Gm"G4:|2 "Dm"DG2 "F"F "Gm"GABc|
|:"Gm"d2 de dcBc|"F"d2 de dcBA|"Eb"G2 DG BGDB,|"Gm"G,B,DG "Bb"BG"F"Bc|
|"Gm"d2 de "F"dcBc|"Eb"d2 de "D"dcBA|"Gm"GD"F"GB "Eb"dBGD|"D7"EDCB, "Gm"G,4:|
